!! 00000] TT[WS
!!!OTL: Fang fengzheng
!!!ARE: Asia, China,ÿShanxi Yicheng
!! Ethnic Group: Han
!! WI, 216 (1)
!!!SCT: J0256
!!!YEM: Copyright 1995, estate of Helmut Schaffrath.
**kern
*ICvox
*Ivox
*M2/4
*k[b-e-]
*B-:
{8ff
16a
16b-
8.cc
16ff
=1
8ff
16a
16b-
4cc
=2
8cc
8ff
8ee-
8ff
=3
16ff
16gg
16ff
16ff
4cc}
=4
{8ff
8a
8a
8b-
=5
8cc
8ee-
8dd
8cc
=6
8b-
16a
16f
8f
8b-
=7
2f}
==
!!!AGN: Xiaodiao. Qingge, Sichun
!!!ONB: ESAC (Essen Associative Code) Database: CHINA
!!!AMT: simple duple
!!!AIN: vox
!!!EED: Helmut Schaffrath
!!!EEV: 1.0
*-
